uTorrent/utorrent.svg

<?xml version="1.0" encoding="UTF-8"?>
<svg width="157px" height="48px" viewBox="0 0 157 48" version="1.1" xmlns="http://www.w3.org/2000/svg" xmlns:xlink="http://www.w3.org/1999/xlink">
    <!-- Generator: Sketch 56.3 (81716) - https://sketch.com -->
    <title>Group</title>
    <desc>Created with Sketch.</desc>
    <g id="Symbols" stroke="none" stroke-width="1" fill="none" fill-rule="evenodd">
        <g id="Logo---Primary---Green" fill="#76B83F">
            <g id="Logo-Copy">
                <g id="Group" transform="translate(0.000000, -0.000000)">
                    <path d="M155.5314,22.78095 L155.5314,25.3122 L152.7189,25.3122 L152.7189,32.07795 C152.7189,32.7072 152.8434,33.1302 153.05415,33.3432 C153.2694,33.55545 153.70065,33.65895 154.3344,33.65895 C154.5474,33.65895 154.77465,33.6477 154.9659,33.63045 C155.1594,33.61245 156.18765,33.58695 156.37515,33.55545 L156.37515,36.4512 C156.00015,36.50745 154.8564,36.5397 154.47015,36.55845 C154.08315,36.5772 153.69465,36.5877 153.32715,36.5877 C152.7489,36.5877 152.19165,36.54645 151.6749,36.4662 C151.15515,36.3882 150.69615,36.2322 150.29865,36.00645 C149.9049,35.77695 149.61315,35.4507 149.38515,35.02995 C149.1579,34.6092 149.06265,34.05345 149.06265,33.3702 L149.06265,25.3122 L146.7189,25.3122 L146.7189,22.78095 L149.06265,22.78095 L149.06265,18.7497 L152.7189,18.7497 L152.7189,22.78095 L155.5314,22.78095 Z" id="Fill-1"></path>
                    <polygon id="Fill-3" points="71.1564 21.09345 71.1564 17.6247 86.06265 17.6247 86.06265 21.09345 80.7189 21.09345 80.7189 36.46845 76.50015 36.46845 76.50015 21.09345"></polygon>
                    <path d="M83.260425,26.685075 C83.595675,25.795575 84.066675,25.041825 84.683925,24.418575 C85.301175,23.792325 86.039925,23.308575 86.899425,22.965075 C87.760425,22.623825 88.727925,22.451325 89.801175,22.451325 C90.870675,22.451325 91.843425,22.623825 92.713425,22.965075 C93.583425,23.308575 94.324425,23.792325 94.943175,24.418575 C95.557425,25.041825 96.032175,25.795575 96.366675,26.685075 C96.700425,27.573075 96.866925,28.561575 96.866925,29.649825 C96.866925,30.744075 96.700425,31.723575 96.366675,32.603325 C96.032175,33.481575 95.557425,34.233825 94.943175,34.858575 C94.324425,35.482575 93.583425,35.961075 92.713425,36.293325 C91.843425,36.627075 90.870675,36.795825 89.801175,36.795825 C88.727925,36.795825 87.760425,36.627075 86.899425,36.293325 C86.039925,35.961075 85.301175,35.482575 84.683925,34.858575 C84.066675,34.233825 83.595675,33.481575 83.260425,32.603325 C82.928925,31.723575 82.759425,30.744075 82.759425,29.649825 C82.759425,28.561575 82.928925,27.573075 83.260425,26.685075 M86.663175,31.244325 C86.768925,31.765575 86.948925,32.231325 87.203925,32.643075 C87.455925,33.057825 87.795675,33.387075 88.220175,33.630075 C88.641675,33.877575 89.168175,33.998325 89.801175,33.998325 C90.432675,33.998325 90.965175,33.877575 91.394925,33.630075 C91.826925,33.387075 92.168925,33.057825 92.423175,32.643075 C92.678925,32.231325 92.859675,31.765575 92.964675,31.244325 C93.070425,30.727575 93.123675,30.198075 93.123675,29.649825 C93.123675,29.106075 93.070425,28.568325 92.964675,28.042575 C92.859675,27.516075 92.678925,27.051075 92.423175,26.645325 C92.168925,26.240325 91.826925,25.911075 91.394925,25.656825 C90.965175,25.398825 90.432675,25.275825 89.801175,25.275825 C89.168175,25.275825 88.641675,25.398825 88.220175,25.656825 C87.795675,25.911075 87.455925,26.240325 87.203925,26.645325 C86.948925,27.051075 86.768925,27.516075 86.663175,28.042575 C86.557425,28.568325 86.504175,29.106075 86.504175,29.649825 C86.504175,30.198075 86.557425,30.727575 86.663175,31.244325" id="Fill-5"></path>
                    <path d="M121.759425,33.1908 C122.323425,33.7383 123.128925,34.0023 124.184925,34.0023 C124.940175,34.0023 125.590425,33.81855 126.136425,33.4428 C126.680925,33.0663 127.016175,32.62455 127.139175,32.24955 L130.433175,32.24955 C129.908925,33.8433 129.095925,35.04405 128.009925,35.7528 C126.917175,36.4518 125.599425,36.7998 124.053675,36.7998 C122.980425,36.7998 122.013675,36.62505 121.150425,36.2838 C120.289425,35.94105 119.560425,35.4513 118.964925,34.8198 C118.367175,34.18605 117.904425,33.4323 117.579675,32.5533 C117.253425,31.6743 117.090675,30.7053 117.090675,29.6493 C117.090675,28.63005 117.257925,27.68505 117.593175,26.8023 C117.925425,25.9233 118.400925,25.1613 119.015925,24.52155 C119.633925,23.8788 120.366675,23.3748 121.217175,23.0043 C122.069925,22.63605 123.016425,22.45155 124.053675,22.45155 C125.213175,22.45155 126.221175,22.67505 127.085925,23.12355 C127.946925,23.5728 128.657925,24.17505 129.208425,24.93105 C129.761925,25.6878 130.163175,26.5563 130.406175,27.52305 C130.655925,28.48905 130.742925,29.5308 130.673175,30.56205 L120.836175,30.56205 C120.887925,31.7808 121.199925,32.6448 121.759425,33.1908 M125.993925,26.03355 C125.541675,25.54155 124.859925,25.28655 123.947925,25.28655 C123.348675,25.28655 122.853675,25.3788 122.459925,25.58205 C122.062425,25.78605 121.743675,26.0313 121.509675,26.3298 C121.270425,26.63055 121.105425,26.96955 121.007175,27.30105 C120.911925,27.6363 120.854175,27.93705 120.836175,28.2183 L126.927675,28.2183 C126.751425,27.18705 126.439425,26.5278 125.993925,26.03355" id="Fill-7"></path>
                    <path d="M136.0314,22.78095 L136.0314,24.7497 L136.1574,24.7497 C136.63065,23.90595 137.24715,23.3667 138.00165,23.0067 C138.75765,22.64745 139.5309,22.4592 140.32515,22.4592 C141.3249,22.4592 142.1439,22.5912 142.7859,22.86345 C143.42715,23.1357 143.93265,23.51445 144.30315,23.9967 C144.6699,24.47895 144.9354,25.0677 145.08315,25.7607 C145.2354,26.4567 145.31265,27.2232 145.31265,28.0692 L145.31265,36.46845 L141.56265,36.46845 L141.56265,28.7532 C141.56265,27.63045 141.38715,26.7912 141.0354,26.2362 C140.6814,25.6812 140.05965,25.4037 139.1619,25.4037 C138.14115,25.4037 137.38365,25.7082 136.92615,26.3157 C136.4694,26.9202 136.2189,27.9192 136.2189,29.3097 L136.2189,36.46845 L132.56265,36.46845 L132.56265,22.78095 L136.0314,22.78095 Z" id="Fill-9"></path>
                    <path d="M106.68765,22.455375 C106.68765,22.455375 106.6239,22.451625 106.5984,22.451625 C106.12215,22.451625 105.6639,22.522125 105.2259,22.660125 C104.7864,22.803375 104.37165,23.000625 103.98465,23.254125 C103.59765,23.512125 103.2564,23.797875 102.9579,24.158625 C102.6579,24.517125 102.42165,24.937125 102.2469,25.312125 L102.18765,25.312125 L102.18765,22.780875 L98.62515,22.780875 L98.62515,36.468375 L102.37515,36.468375 L102.37515,30.308625 C102.37515,29.695875 102.43665,29.126625 102.56115,28.595625 C102.68565,28.069125 102.89115,27.606375 103.18215,27.211875 C103.4739,26.815875 103.8564,26.505375 104.32815,26.276625 C104.80365,26.047125 105.38265,25.932375 106.0689,25.932375 C106.2684,25.932375 106.50015,25.943625 106.68765,25.963875 L106.68765,22.455375 Z" id="Fill-11"></path>
                    <path d="M116.5314,22.455375 C116.43765,22.455375 116.4594,22.451625 116.42715,22.451625 C115.9539,22.451625 115.48965,22.522125 115.0509,22.660125 C114.61065,22.803375 114.19515,23.000625 113.81115,23.254125 C113.4234,23.512125 113.07765,23.797875 112.7799,24.158625 C112.4814,24.517125 112.24065,24.937125 112.06665,25.312125 L112.0314,25.312125 L112.0314,22.780875 L108.4689,22.780875 L108.4689,36.468375 L112.2189,36.468375 L112.2189,30.308625 C112.2189,29.695875 112.27215,29.126625 112.39365,28.595625 C112.5159,28.069125 112.7169,27.606375 113.0094,27.211875 C113.2974,26.815875 113.67765,26.505375 114.15165,26.276625 C114.6264,26.047125 115.2174,25.932375 115.9014,25.932375 C116.1009,25.932375 116.3439,25.943625 116.5314,25.963875 L116.5314,22.455375 Z" id="Fill-13"></path>
                    <path d="M69.00015,36.5622 L69.00015,34.59345 L68.92515,34.59345 C68.67765,34.96845 68.4009,35.3322 68.0889,35.6127 C67.77765,35.8962 67.4634,36.1377 67.1424,36.32445 C66.8244,36.51195 66.51615,36.6507 66.2259,36.7392 C65.93115,36.82695 65.6784,36.87345 65.46765,36.87345 C64.93515,36.87345 64.50765,36.81645 64.18965,36.70095 C63.87165,36.58245 63.6564,36.4377 63.4689,36.26145 L63.4689,41.34345 L59.7189,41.34345 L59.7189,22.78095 L63.4689,22.78095 L63.4689,30.5382 C63.4689,31.6737 63.64665,32.5242 64.00065,33.0837 C64.35765,33.63945 64.9869,33.9207 65.89215,33.9207 C66.9204,33.9207 67.66515,33.61245 68.1234,33.0012 C68.58465,32.3892 68.81265,31.3812 68.81265,29.98095 L68.81265,22.78095 L72.56265,22.78095 L72.56265,36.5622 L69.00015,36.5622 Z" id="Fill-15"></path>
                    <path d="M27.3678,47.7609 C36.26205,46.51065 43.58955,40.3884 46.56555,32.1819 C46.3308,32.2689 46.0443,32.37165 45.7023,32.4744 C41.70105,33.6549 38.8938,31.54215 38.32755,31.1769 C37.7613,30.8154 37.15455,30.21615 37.0413,30.24765 C36.6753,32.5134 34.6053,35.65965 29.8803,37.0869 C27.2928,37.87065 24.5073,37.88865 22.5198,36.7749 L23.1753,38.4189 C23.4378,39.0744 23.87805,40.1499 24.15105,40.8024 C24.15105,40.8024 25.8678,44.8899 27.3678,47.7609" id="Fill-18"></path>
                    <path d="M5.44575,14.18775 L12.52725,12.8685 C13.17225,12.75075 13.887,13.11675 14.1135,13.6815 L18.97875,25.82325 C19.641,27.08925 19.776,27.369 20.20725,27.909 C20.20725,27.909 23.5665,32.7045 28.6875,31.533 C32.1405,30.744 33.753,28.152 33.8625,26.30775 C33.97575,25.716 33.79875,24.97125 33.49125,24.276 L27.66375,11.1015 C27.42975,10.5705 27.70725,10.04925 28.27575,9.9405 L34.18125,8.84025 C34.72275,8.7435 35.358,9.0795 35.59425,9.59325 L42.04875,23.412 C42.309,23.96475 42.83625,24.83625 43.224,25.344 C43.224,25.344 44.5665,27.27225 46.7175,26.90625 C47.24925,26.90625 47.85525,26.61825 47.85525,26.61825 C47.94975,25.758 48,24.88575 48,23.99925 C48,10.74375 37.254,0 23.997,0 C10.74375,0 0,10.74375 0,23.99925 C0,34.63575 6.92025,43.653 16.5045,46.8015 C15.85725,45.4695 15.2025,43.99725 14.66625,42.5595 L4.59525,15.49725 C4.374,14.90325 4.76175,14.316 5.44575,14.18775" id="Fill-19"></path>
                </g>
            </g>
        </g>
    </g>
</svg>

<svg viewBox="0 0 157 48" xmlns="http://www.w3.org/2000/svg"><g fill="#76B83F" fill-rule="evenodd"><path d="M155.531 22.78v2.532h-2.812v6.766c0 .63.124 1.052.335 1.265.215.212.647.316 1.28.316.213 0 .44-.011.632-.029.193-.018 1.222-.043 1.41-.075v2.896c-.376.056-1.52.089-1.906.107-.387.02-.775.03-1.143.03a11 11 0 0 1-1.652-.122 4 4 0 0 1-1.376-.46c-.394-.23-.686-.555-.914-.976s-.322-.977-.322-1.66v-8.058h-2.344v-2.531h2.344V18.75h3.656v4.031zm-84.375-1.687v-3.468h14.907v3.468h-5.344v15.375H76.5V21.093z"/><path d="M83.26 26.685c.336-.89.807-1.643 1.424-2.266a6.4 6.4 0 0 1 2.215-1.454q1.292-.513 2.902-.514 1.606.001 2.912.514 1.303.515 2.23 1.454a6.4 6.4 0 0 1 1.424 2.266q.5 1.333.5 2.965c0 1.094-.167 2.074-.5 2.953a6.4 6.4 0 0 1-1.424 2.256 6.2 6.2 0 0 1-2.23 1.434q-1.306.502-2.912.503-1.61-.001-2.902-.503a6.2 6.2 0 0 1-2.215-1.434c-.617-.625-1.088-1.377-1.424-2.256-.331-.88-.5-1.859-.5-2.953q.002-1.633.5-2.965m3.403 4.56q.159.78.54 1.398.38.622 1.017.987.632.37 1.581.368.949.002 1.594-.368a2.8 2.8 0 0 0 1.028-.987q.384-.617.542-1.399a8.2 8.2 0 0 0 0-3.202 4.1 4.1 0 0 0-.542-1.397 3 3 0 0 0-1.028-.988c-.43-.258-.962-.381-1.594-.381s-1.16.123-1.58.38a3 3 0 0 0-1.017.99q-.382.607-.54 1.397a8.2 8.2 0 0 0 0 3.201m35.096 1.946c.563.548 1.369.812 2.425.812.755 0 1.405-.183 1.951-.56.545-.376.88-.817 1.003-1.192h3.294c-.524 1.593-1.337 2.794-2.423 3.503q-1.638 1.048-3.956 1.047c-1.074 0-2.04-.175-2.904-.516a6 6 0 0 1-2.185-1.464 6.6 6.6 0 0 1-1.385-2.267q-.49-1.32-.49-2.904c0-1.019.168-1.964.503-2.847a6.6 6.6 0 0 1 1.423-2.28 6.8 6.8 0 0 1 2.201-1.518q1.28-.552 2.837-.552c1.16 0 2.167.223 3.032.672a6.04 6.04 0 0 1 2.122 1.807 7.4 7.4 0 0 1 1.198 2.592c.25.966.337 2.008.267 3.039h-9.837c.052 1.219.364 2.083.923 2.629m4.235-7.157c-.452-.492-1.134-.747-2.046-.747-.6 0-1.094.092-1.488.295-.398.204-.716.45-.95.748-.24.3-.405.64-.503.971a4.4 4.4 0 0 0-.17.917h6.09c-.176-1.031-.488-1.69-.933-2.184m10.037-3.254v1.97h.126c.474-.844 1.09-1.383 1.845-1.743.756-.36 1.529-.548 2.323-.548q1.5-.002 2.46.404.963.41 1.518 1.134c.367.482.632 1.07.78 1.764.152.696.23 1.462.23 2.308v8.4h-3.75v-7.716q0-1.684-.528-2.517c-.354-.555-.975-.832-1.873-.832-1.02 0-1.778.304-2.236.912-.457.604-.707 1.603-.707 2.994v7.158h-3.656V22.781zm-29.343-.325-.09-.003q-.714 0-1.372.208-.66.214-1.241.594a4.6 4.6 0 0 0-1.027.905c-.3.358-.536.778-.711 1.153h-.06v-2.531h-3.562v13.687h3.75v-6.16q0-.917.186-1.712.186-.792.621-1.384a3.04 3.04 0 0 1 1.146-.935q.713-.345 1.74-.345c.2 0 .432.012.62.032zm9.843 0c-.093 0-.072-.003-.104-.003-.473 0-.937.07-1.376.208q-.662.214-1.24.594a4.6 4.6 0 0 0-1.031.905c-.299.358-.54.778-.713 1.153h-.036v-2.531h-3.562v13.687h3.75v-6.16c0-.612.053-1.181.175-1.712.122-.527.323-.99.615-1.384a3 3 0 0 1 1.143-.935c.474-.23 1.065-.345 1.75-.345.199 0 .442.012.63.032zM69 36.562v-1.969h-.075c-.247.375-.524.74-.836 1.02a5.6 5.6 0 0 1-.947.711 4.3 4.3 0 0 1-.916.415 2.7 2.7 0 0 1-.758.134q-.8 0-1.278-.172a2 2 0 0 1-.721-.44v5.082h-3.75V22.781h3.75v7.757q0 1.705.532 2.546c.357.555.986.837 1.891.837q1.543-.002 2.231-.92.692-.919.69-3.02v-7.2h3.75v13.781zM27.368 47.76c8.894-1.25 16.222-7.372 19.198-15.578-.235.087-.522.19-.864.292-4 1.18-6.808-.932-7.374-1.297-.567-.362-1.173-.96-1.287-.93-.366 2.266-2.436 5.413-7.16 6.84-2.588.784-5.374.802-7.361-.312l.655 1.644c.263.655.703 1.73.976 2.383 0 0 1.717 4.088 3.217 6.959"/><path d="m5.446 14.188 7.081-1.32c.645-.117 1.36.249 1.587.813l4.865 12.142c.662 1.266.797 1.546 1.228 2.086 0 0 3.36 4.796 8.48 3.624 3.454-.789 5.066-3.381 5.175-5.225.114-.592-.063-1.337-.37-2.032l-5.828-13.174c-.234-.532.043-1.053.612-1.162l5.905-1.1c.542-.097 1.177.24 1.413.753l6.455 13.819c.26.553.787 1.424 1.175 1.932 0 0 1.343 1.928 3.494 1.562.531 0 1.137-.288 1.137-.288Q48 25.328 48 24C48 10.744 37.254 0 23.997 0 10.744 0 0 10.744 0 24c0 10.635 6.92 19.652 16.505 22.8a50 50 0 0 1-1.839-4.242L4.596 15.497c-.222-.594.166-1.181.85-1.31"/></g></svg>
